images/tashkentkiy-sad-logo.svg

<svg width="200" height="80" viewBox="0 0 200 80" fill="none" xmlns="http://www.w3.org/2000/svg">
<path fill-rule="evenodd" clip-rule="evenodd" d="M194.781 11.5847L194.618 11.4215V9.01749H193.781L193.62 8.8545V8.67303L193.781 8.51253H195.996L196.16 8.67303V8.8545L195.996 9.01749H195.16V11.4215L194.997 11.5847H194.781Z" fill="#DE0D17"/>
<path fill-rule="evenodd" clip-rule="evenodd" d="M197.429 9.37667V11.4215L197.268 11.5847H197.051L196.888 11.4215V8.67303L197.051 8.51253H197.304L197.513 8.62199L198.486 9.94731L199.416 8.62199L199.621 8.51253H199.839L200 8.67303V11.4215L199.839 11.5847H199.626L199.465 11.4215V9.36224L198.659 10.4919H198.241L197.429 9.37667Z" fill="#DE0D17"/>
<path fill-rule="evenodd" clip-rule="evenodd" d="M19.6017 8.27078C19.6017 7.95191 19.4429 7.62327 19.1277 7.28786C24.2116 7.28786 24.0036 7.41595 26.6047 7.41595C31.9575 7.41595 33.5724 6.96899 33.5724 1.92603C33.5724 0.0903831 32.0232 0 31.7405 0C31.5019 0 31.1654 0.067289 31.1654 0.207274C31.1654 0.323501 31.4972 0.505003 31.4972 0.847862C31.4972 2.06324 27.948 3.40296 17.1392 3.40296C7.86725 3.40296 0 2.03364 0 11.1099C0 13.2485 2.34406 13.7239 2.9282 13.7239C3.15462 13.7239 3.53552 13.6815 3.53552 13.4954C3.53552 13.2413 2.82281 12.9243 2.82281 12.0469C2.82281 9.35639 4.26943 7.86802 15.1906 7.36491C12.1341 12.3517 9.0734 27.2682 9.0734 30.7106C9.0734 37.1184 12.7393 38.0499 14.723 38.0499C15.2186 38.0499 15.4662 37.9635 15.4662 37.7864C15.4662 37.4254 14.4309 34.7864 14.4309 31.3022C14.4309 21.2051 19.6017 8.93251 19.6017 8.27078Z" fill="#DE0D17"/>
<path fill-rule="evenodd" clip-rule="evenodd" d="M86.2697 14.0849C86.6386 14.0849 86.8234 14.2435 86.8234 14.5603C86.8234 15.7223 84.639 18.1475 81.5942 19.058C82.44 17.3018 84.3212 14.0849 86.2697 14.0849ZM168.096 34.5684C167.802 34.5684 167.849 35.3112 167.243 35.3112C163.65 35.3112 156.906 25.9061 154.841 21.9485C155.292 21.6481 162.916 16.2889 162.916 14.7162C162.916 12.2707 160.558 11.7536 159.911 11.7536C159.676 11.7536 159.068 11.8403 159.068 12.1517C159.068 12.478 159.512 12.5432 159.512 13.0741C159.512 14.4441 154.589 18.4783 152.049 20.2457C153.801 13.9643 155.577 13.9503 155.577 13.3098C155.577 12.2355 152.762 11.584 152.222 11.584C149.628 11.584 148.021 15.4154 147.236 19.6522C146.114 20.8168 143.871 25.8525 139.943 25.8525C139.373 25.8525 137.702 25.7799 137.702 22.8987C137.702 19.6404 140.305 14.0849 142.749 14.0849C143.385 14.0849 143.595 14.3623 143.595 14.8191C143.595 15.7296 142.287 17.7744 140.644 17.7744C140.347 17.7744 140.086 17.9679 140.086 18.6572C140.086 19.6191 140.831 21.0777 142.125 21.0777C143.995 21.0777 145.673 17.7539 145.673 15.8717C145.673 13.0326 143.864 11.7536 141.852 11.7536C138.326 11.7536 134.226 16.2844 133.457 21.9346C132.171 23.7537 130.613 25.9317 129.461 25.9317C128.83 25.9317 128.524 25.5034 128.524 24.4033C128.524 21.6712 130.865 16.3212 132.424 14.5513L132.613 14.1201C132.613 13.0906 129.471 11.7932 128.917 11.7932C126.015 11.7932 122.919 16.1722 120.577 21.5035C121.16 17.3717 122.769 15.1264 123.267 14.5513L123.477 14.0712C123.477 13.1164 120.975 11.7932 120.304 11.7932C116.958 11.7932 112.138 20.255 111.577 22.2026C112.168 18.5383 113.781 15.7785 114.851 14.5513L115.04 14.1201C115.04 13.0934 111.942 11.7932 111.381 11.7932C109.899 11.7932 107.612 17.227 107.088 22.4747C106.897 22.7454 106.689 23.034 106.45 23.3601C104.624 25.8334 103.88 26.4672 103.177 26.4672C102.871 26.4672 102.278 26.4111 102.278 24.9809C102.278 22.1281 104.577 17.0712 105.981 15.4337L106.147 15.0497C106.147 14.0784 103.182 12.7552 102.63 12.7552C101.441 12.7552 99.7005 16.2816 98.6514 20.2392C97.0135 20.1877 95.3517 20.0873 94.1416 19.9988C95.004 17.3579 96.2539 15.5574 96.7983 14.9306L96.9875 14.4995C96.9875 13.4656 93.8423 12.1729 93.2911 12.1729C92.0618 12.1729 90.3683 15.8789 89.4965 19.9969C88.3163 21.5668 86.1671 25.7384 82.4917 25.7384C80.6996 25.7384 80.3537 24.2568 80.5425 22.7079C83.2765 22.7079 88.9939 19.0559 88.9939 15.045C88.9939 14.1061 88.6415 11.7536 85.3351 11.7536C81.744 11.7536 75.5544 16.9618 75.5544 23.7959C75.5544 25.4095 76.4143 30.8671 80.8068 30.8671C84.0899 30.8671 87.0686 28.0953 88.9589 25.3098C89.1159 27.688 90.6622 30.4665 93.5647 30.4665C93.7467 30.4665 93.8376 30.3502 93.8376 30.1171C93.1745 27.5389 93.1415 25.1771 93.4289 23.1113C95.0972 23.1555 96.7022 23.2438 98.0016 23.3323C97.8474 24.35 97.754 25.3469 97.754 26.2672C97.754 30.9437 99.9548 31.2817 100.878 31.2817C102.205 31.2817 104.104 30.9041 106.45 28.2144C106.801 27.807 107.126 27.3639 107.439 26.903C108.105 28.6336 109.495 30.1264 111.617 30.1264L111.887 29.8166V29.777C111.887 26.2506 114.449 20.8049 117.237 16.6098L117.276 16.5709C116.76 18.1052 115.862 21.2871 115.862 24.571C115.862 26.7954 117.281 30.1264 120.54 30.1264C120.715 30.1264 120.802 29.989 120.802 29.7118L120.774 29.3883C120.774 27.3759 121.652 23.4532 125.526 17.1525C125.384 17.5624 123.902 21.7855 123.902 25.7006C123.902 29.849 125.459 30.9419 127.124 30.9419C127.216 30.9419 129.922 31.2377 132.852 27.7574C133.158 27.4036 133.438 27.0127 133.719 26.6212C134.322 28.7827 135.663 30.8645 138.074 30.8645C141.263 30.8645 144.677 27.6761 146.682 24.6343C146.516 28.9855 149.946 30.8256 151.023 30.8256C151.261 30.8256 151.509 30.4269 151.509 30.2333C151.509 30.1495 150.21 27.7113 151.703 21.5761C155.025 28.8733 159.503 38.1456 164.281 38.1456C167.208 38.1456 168.61 36.0633 168.61 35.2697C168.61 34.7731 168.169 34.5684 168.096 34.5684Z" fill="#DE0D17"/>
<path fill-rule="evenodd" clip-rule="evenodd" d="M189.807 14.0849C190.177 14.0849 190.362 14.2435 190.362 14.5603C190.362 15.7223 188.176 18.1475 185.132 19.058C185.978 17.3018 187.859 14.0849 189.807 14.0849ZM193.705 19.4053C192.77 19.4053 190.558 25.7384 186.029 25.7384C185.454 25.7384 184.038 25.661 184.038 23.3647C184.038 23.1555 184.052 22.9364 184.081 22.7079C186.922 22.7079 191.882 19.1114 192.418 16.1444C192.494 15.7554 192.532 15.3897 192.532 15.045C192.532 14.1061 192.179 11.7536 188.873 11.7536C185.959 11.7536 180.356 15.5943 179.272 21.8924C178.008 23.7029 176.475 25.8525 175.311 25.8525C174.692 25.8525 174.377 25.4445 174.377 24.3313C174.377 21.4573 176.758 16.2164 178.234 14.542L178.424 14.1133C178.424 13.1025 175.346 11.7932 174.767 11.7932C173.489 11.7932 171.622 15.9628 170.715 19.9897C170.101 21.4732 168.536 24.4944 166.935 24.4944C166.341 24.4944 165.939 24.1175 165.939 22.929C165.939 20.3601 168.213 15.9369 169.391 14.5513L169.575 14.0831C169.575 13.1071 167.18 11.7932 166.507 11.7932C164.72 11.7932 160.975 20.0621 160.975 25.0003C160.975 25.7219 161.154 30.0516 164.397 30.0516C165.982 30.0516 167.984 28.4936 170.168 24.9607C170.232 29.3394 171.737 30.8645 173.014 30.8645C173.106 30.8645 175.758 31.1748 178.702 27.6551C178.999 27.3104 179.269 26.9289 179.54 26.5492C180.15 28.5959 181.508 30.8671 184.345 30.8671C189.887 30.8671 194.586 22.9713 194.586 20.4371C194.586 19.703 194.273 19.4053 193.705 19.4053Z" fill="#DE0D17"/>
<path fill-rule="evenodd" clip-rule="evenodd" d="M101.995 58.9857C101.96 58.9857 100.792 59.1488 100.792 57.046C100.792 54.3487 103.245 49.1218 106.904 49.1218C107.397 49.1218 107.645 49.2359 107.645 49.4691C107.645 50.3537 105.269 52.1826 105.269 52.8883C105.269 53.1906 105.355 53.3749 105.775 53.6264C104.57 56.3006 103.757 58.9857 101.995 58.9857ZM95.3338 75.5585C94.8125 75.5585 94.2543 75.3558 93.6561 74.9505L93.4085 74.4288C93.4085 73.5111 95.4994 72.1972 99.6562 71.0279C99.2587 71.9014 97.7215 75.5585 95.3338 75.5585ZM88.3965 52.578C88.3965 53.0304 88.6907 53.233 88.9033 53.3169C87.6932 56.002 86.9268 58.4807 85.2795 58.4807C85.0994 58.4807 84.1131 58.5553 84.1131 56.6544C84.1131 54.393 86.2373 48.966 89.955 48.966C90.2279 48.966 90.6373 48.9776 90.6373 49.3593C90.6373 50.1629 88.3965 51.9522 88.3965 52.578ZM109.75 65.2007C108.892 65.2007 107.958 65.2396 106.944 65.3167L111.145 53.1935C111.145 52.5483 109.995 52.0123 109.36 51.8399C110.299 50.561 110.334 49.224 110.334 48.6931C110.334 47.3771 109.564 45.7418 106.904 45.7418C104.448 45.7418 98.2846 48.6582 96.5717 54.9028C95.2027 56.7944 93.2846 59.8407 91.9359 59.8407C89.3192 59.8407 94.0907 53.1024 94.0907 52.9556C94.0907 52.3687 93.137 51.7957 92.364 51.6068C93.3449 50.3728 93.3078 48.8026 93.3078 48.5373C93.3078 47.1025 92.2799 45.7418 89.9875 45.7418C88.6601 45.7418 83.7954 47.1047 80.8889 52.3244C80.0524 53.8265 79.6339 55.627 79.6246 57.7233C78.7974 56.0509 77.0872 55.3359 76.2155 55.3359C73.227 55.3359 75.393 56.2377 75.3862 60.0408C75.3769 64.1614 71.323 67.3247 68.059 67.3247C66.1355 67.3247 64.1518 66.0595 64.1518 61.2478C64.1518 53.4403 70.1035 39.5117 74.8769 39.5117C76.1202 39.5117 77.0613 40.0453 77.0613 41.5123C77.0613 44.2866 75.1736 45.2599 78.139 45.2599C81.083 45.2599 81.4401 43.9393 81.4401 42.1621C81.4401 39.8841 79.7346 36.7539 75.0711 36.7539C68.9584 36.7539 59.0954 44.7752 59.0954 59.5173C59.0954 69.2109 67.2854 70.1591 68.914 70.1591C76.244 70.1591 79.5942 64.3198 80.0405 60.6469C80.5055 62.2678 81.4613 63.9192 83.4032 63.9192C84.9823 63.9192 86.8282 60.9287 87.1441 60.3834C86.9918 61.9766 87.2329 64.8506 89.637 64.8506C92.2002 64.8506 94.6185 62.769 96.3193 60.3694C96.7705 62.6777 97.9879 64.658 100.046 64.658C101.147 64.658 102.357 63.1782 103.319 61.9792C102.92 62.8105 102.397 64.0193 101.605 66.251C100.287 66.5931 92.572 68.5638 92.0201 74.7174C91.9878 74.8778 91.9434 75.146 91.9434 75.4951C92.0976 78.088 93.9622 80 97.0063 80C100.878 80 102.808 75.6491 105.152 69.8633C107.091 69.5813 108.622 69.5211 109.489 69.5211C113.804 69.5211 114.898 70.7533 115.126 70.9883C115.414 71.2841 115.648 71.426 115.816 71.426C115.903 71.426 116.148 71.3633 116.148 70.8509C116.148 69.3977 114.068 65.2007 109.75 65.2007Z" fill="#DE0D17"/>
<path fill-rule="evenodd" clip-rule="evenodd" d="M136.398 53.6509C135.461 53.6509 132.383 60.0585 130.398 60.0585C129.173 60.0585 133.241 52.9379 133.241 49.6749C133.241 47.5786 131.641 46.0316 130.475 46.0316C129.671 46.0316 126.308 51.6524 124.222 53.369C124.355 52.2207 124.563 49.9985 122.273 49.9985C119.801 49.9985 118.451 52.1132 118.451 54.1864C118.451 55.5353 119.397 56.7231 120.916 56.9765C119.682 58.4628 118.042 60.2539 116.233 60.2539C113.749 60.2539 116.832 51.7924 119.037 49.2226L119.203 48.8364C119.203 47.8652 116.238 46.5394 115.687 46.5394C113.888 46.5394 110.81 54.6129 110.81 60.0541C110.81 64.724 113.007 65.0705 113.932 65.0705C118.619 65.0705 121.605 60.1305 121.722 60.1305C122.477 59.0239 123.023 58.0363 123.498 56.6134C125.311 55.3466 129.225 48.9434 129.26 48.9434L129.286 48.9948C129.286 49.8473 125.178 58.8306 125.178 61.3627C125.178 63.0027 126.056 65.0705 128.215 65.0705C132.599 64.9683 137.15 58.2041 137.15 54.7014C137.15 53.6556 136.571 53.6509 136.398 53.6509Z" fill="#DE0D17"/>
<path fill-rule="evenodd" clip-rule="evenodd" d="M26.2967 18.5906C26.2967 19.0429 26.5934 19.2455 26.8033 19.3268C25.5812 22.0382 24.8223 24.4951 23.1797 24.4951C22.9974 24.4951 22.0132 24.5677 22.0132 22.6669C22.0132 20.3659 24.1678 14.9784 27.8552 14.9784C28.1307 14.9784 28.5347 14.9924 28.5347 15.3744C28.5347 16.1733 26.2967 17.9666 26.2967 18.5906ZM64.1206 31.0355C64.3589 31.0355 64.6066 30.6353 64.6066 30.4439C64.6066 30.3553 63.2795 27.8888 64.8571 21.5557C65.2842 22.6227 65.4904 23.1257 66.4084 25.304C68.5648 30.5349 70.21 31.9837 71.628 31.9837C73.8503 31.9837 75.8201 28.2921 75.8201 27.4767C75.8201 27.169 75.6796 27.0502 75.4486 27.0502C75.0002 27.0502 74.8478 27.789 73.8901 27.789C72.0533 27.789 70.3055 24.4443 68.9059 21.4746C71.0626 19.921 76.014 16.1938 76.014 14.9267C76.014 12.4813 73.6562 11.9642 73.0092 11.9642C72.7734 11.9642 72.1659 12.048 72.1659 12.3625C72.1659 12.6867 72.6096 12.7541 72.6096 13.2849C72.6096 14.6549 67.6867 18.6888 65.1466 20.4565C66.8991 14.172 68.6748 14.1609 68.6748 13.5206C68.6748 12.4464 65.8592 11.7921 65.3193 11.7921C62.5766 11.7921 60.934 16.0822 60.2047 20.603C58.8776 22.2595 56.6906 26.0487 55.2374 26.0487C53.9378 26.0487 54.2584 23.6613 54.889 21.5953C56.5342 17.8108 57.5455 14.2328 57.5455 13.8902C57.5455 12.7936 55.401 11.7921 53.6107 11.7921C52.1952 11.7921 49.7346 25.5481 46.823 25.5481C44.024 25.5481 47.1291 16.7789 49.0895 14.5517L49.2815 14.1213C49.2815 13.1218 46.2998 11.7921 45.6222 11.7921C43.4471 11.7921 41.2222 18.9846 41.6106 22.8252C41.4839 23.0603 39.6473 26.5147 38.2968 26.5147C35.8509 26.5147 39.2665 15.7375 40.4023 14.5517L40.5918 14.1213C40.5918 13.1172 37.5842 11.7921 37.0119 11.7921C35.9044 11.7921 34.7481 14.643 34.0889 16.7437C33.5842 18.3627 33.012 20.8128 32.8199 23.2326C31.792 24.6185 30.7032 25.8533 29.8342 25.8533C27.7028 25.8533 30.8058 20.3864 31.7524 19.4456L31.9907 18.9681C31.9907 18.3786 31.0443 17.8129 30.2639 17.6193C31.2476 16.3827 31.2058 14.8172 31.2058 14.5517C31.2058 13.3032 30.3786 11.7543 27.8876 11.7543C25.1541 11.7543 17.5226 15.6068 17.5226 23.7947C17.5226 24.9567 17.9341 29.9317 21.3006 29.9317C22.8804 29.9317 24.731 26.9387 25.0415 26.3985C24.8924 27.9891 25.1328 30.8659 27.5371 30.8659C29.6076 30.8659 31.5184 29.5611 33.0517 27.8472C33.7545 30.8426 35.4864 30.9027 36.0773 30.9027C38.316 30.9027 40.5474 29.3685 42.155 26.3193C42.4914 27.7679 43.4915 30.9027 46.9468 30.9027C48.1364 30.9027 49.2862 30.2016 50.3606 29.0932C51.1176 30.8077 52.4497 30.8659 52.9378 30.8659C54.2743 30.8659 56.1765 30.479 58.5105 27.7958C58.9617 27.2722 59.3729 26.6918 59.7631 26.0789C59.8054 28.3713 62.5343 31.0355 64.1206 31.0355Z" fill="#DE0D17"/>
</svg>

<svg width="200" height="80" fill="none" xmlns="http://www.w3.org/2000/svg"><path fill-rule="evenodd" clip-rule="evenodd" d="m194.781 11.585-.163-.164V9.018h-.837l-.161-.162v-.182l.161-.16h2.215l.164.16v.181l-.164.163h-.836v2.405l-.163.163h-.216ZM197.429 9.377v2.044l-.161.164h-.217l-.163-.164V8.674l.163-.16h.253l.209.109.973 1.325.93-1.325.205-.11h.218l.161.161v2.748l-.161.164h-.213l-.161-.164V9.363l-.806 1.13h-.418l-.812-1.115ZM19.602 8.27c0-.318-.16-.647-.474-.982 5.084 0 4.876.128 7.477.128 5.352 0 6.967-.447 6.967-5.49C33.572.09 32.023 0 31.74 0c-.238 0-.575.067-.575.207 0 .117.332.298.332.64 0 1.216-3.549 2.556-14.358 2.556C7.867 3.403 0 2.033 0 11.11c0 2.139 2.344 2.614 2.928 2.614.227 0 .608-.043.608-.229 0-.254-.713-.57-.713-1.448 0-2.69 1.446-4.179 12.368-4.682-3.057 4.987-6.118 19.903-6.118 23.346 0 6.407 3.666 7.339 5.65 7.339.496 0 .743-.086.743-.264 0-.36-1.035-3-1.035-6.484 0-10.097 5.17-22.37 5.17-23.031ZM86.27 14.085c.369 0 .553.158.553.475 0 1.162-2.184 3.588-5.229 4.498.846-1.756 2.727-4.973 4.676-4.973Zm81.826 20.483c-.294 0-.247.743-.853.743-3.593 0-10.337-9.405-12.402-13.363.451-.3 8.075-5.66 8.075-7.232 0-2.445-2.358-2.962-3.005-2.962-.235 0-.843.086-.843.398 0 .326.444.391.444.922 0 1.37-4.923 5.404-7.463 7.172 1.752-6.282 3.528-6.296 3.528-6.936 0-1.075-2.815-1.726-3.355-1.726-2.594 0-4.201 3.831-4.986 8.068-1.122 1.165-3.365 6.2-7.293 6.2-.57 0-2.241-.072-2.241-2.953 0-3.259 2.603-8.814 5.047-8.814.636 0 .846.277.846.734 0 .91-1.308 2.955-2.951 2.955-.297 0-.558.194-.558.883 0 .962.745 2.42 2.039 2.42 1.87 0 3.548-3.323 3.548-5.205 0-2.84-1.809-4.118-3.821-4.118-3.526 0-7.626 4.53-8.395 10.18-1.286 1.82-2.844 3.998-3.996 3.998-.631 0-.937-.429-.937-1.529 0-2.732 2.341-8.082 3.9-9.852l.189-.43c0-1.03-3.142-2.328-3.696-2.328-2.902 0-5.998 4.38-8.34 9.71.583-4.131 2.192-6.377 2.69-6.952l.21-.48c0-.955-2.502-2.278-3.173-2.278-3.346 0-8.166 8.462-8.727 10.41.591-3.665 2.204-6.425 3.274-7.652l.189-.43c0-1.028-3.098-2.328-3.659-2.328-1.482 0-3.769 5.434-4.293 10.682-.191.27-.399.559-.638.885-1.826 2.473-2.57 3.107-3.273 3.107-.306 0-.899-.056-.899-1.486 0-2.853 2.299-7.91 3.703-9.547l.166-.384c0-.972-2.965-2.295-3.517-2.295-1.189 0-2.93 3.527-3.979 7.484-1.638-.051-3.3-.152-4.51-.24.863-2.641 2.113-4.442 2.657-5.068l.19-.431c0-1.034-3.146-2.327-3.697-2.327-1.23 0-2.923 3.706-3.794 7.824-1.18 1.57-3.33 5.741-7.005 5.741-1.792 0-2.138-1.481-1.95-3.03 2.734 0 8.452-3.652 8.452-7.663 0-.939-.353-3.291-3.659-3.291-3.591 0-9.78 5.208-9.78 12.042 0 1.614.86 7.071 5.252 7.071 3.283 0 6.262-2.772 8.152-5.557.157 2.378 1.703 5.157 4.606 5.157.182 0 .273-.117.273-.35a17.97 17.97 0 0 1-.41-7.006c1.67.044 3.274.133 4.574.221-.155 1.018-.248 2.015-.248 2.935 0 4.677 2.2 5.015 3.124 5.015 1.327 0 3.226-.378 5.572-3.068.351-.407.676-.85.989-1.311.666 1.73 2.056 3.223 4.178 3.223l.27-.31v-.039c0-3.526 2.562-8.972 5.35-13.167l.039-.04c-.516 1.535-1.414 4.717-1.414 8.001 0 2.224 1.419 5.555 4.678 5.555.175 0 .262-.137.262-.414l-.028-.324c0-2.012.878-5.935 4.752-12.236-.142.41-1.624 4.633-1.624 8.549 0 4.148 1.557 5.24 3.222 5.24.092 0 2.798.297 5.728-3.184.306-.353.586-.744.867-1.136.603 2.162 1.944 4.244 4.355 4.244 3.189 0 6.603-3.189 8.608-6.23-.166 4.35 3.264 6.19 4.341 6.19.238 0 .486-.398.486-.592 0-.084-1.299-2.522.194-8.657 3.322 7.297 7.8 16.57 12.578 16.57 2.927 0 4.329-2.083 4.329-2.876 0-.497-.441-.702-.514-.702Z" fill="#DE0D17"/><path fill-rule="evenodd" clip-rule="evenodd" d="M189.807 14.085c.37 0 .555.158.555.475 0 1.162-2.186 3.588-5.23 4.498.846-1.756 2.727-4.973 4.675-4.973Zm3.898 5.32c-.935 0-3.147 6.333-7.676 6.333-.575 0-1.991-.077-1.991-2.373 0-.21.014-.429.043-.657 2.841 0 7.801-3.597 8.337-6.564a5.74 5.74 0 0 0 .114-1.099c0-.939-.353-3.291-3.659-3.291-2.914 0-8.517 3.84-9.601 10.138-1.264 1.81-2.797 3.96-3.961 3.96-.619 0-.934-.407-.934-1.52 0-2.875 2.381-8.116 3.857-9.79l.19-.429c0-1.01-3.078-2.32-3.657-2.32-1.278 0-3.145 4.17-4.052 8.197-.614 1.483-2.179 4.504-3.78 4.504-.594 0-.996-.377-.996-1.565 0-2.569 2.274-6.992 3.452-8.378l.184-.468c0-.976-2.395-2.29-3.068-2.29-1.787 0-5.532 8.27-5.532 13.207 0 .722.179 5.052 3.422 5.052 1.585 0 3.587-1.558 5.771-5.091.064 4.378 1.569 5.904 2.846 5.904.092 0 2.744.31 5.688-3.21.297-.345.567-.726.838-1.106.61 2.047 1.968 4.318 4.805 4.318 5.542 0 10.241-7.896 10.241-10.43 0-.734-.313-1.032-.881-1.032ZM101.995 58.986c-.035 0-1.203.163-1.203-1.94 0-2.697 2.453-7.924 6.112-7.924.493 0 .741.114.741.347 0 .885-2.376 2.714-2.376 3.42 0 .302.086.486.506.737-1.205 2.675-2.018 5.36-3.78 5.36Zm-6.661 16.572c-.522 0-1.08-.202-1.678-.608l-.248-.521c0-.918 2.091-2.232 6.248-3.401-.397.873-1.934 4.53-4.322 4.53Zm-6.938-22.98c0 .452.295.655.507.739-1.21 2.685-1.976 5.164-3.624 5.164-.18 0-1.166.074-1.166-1.827 0-2.261 2.124-7.688 5.842-7.688.273 0 .682.012.682.393 0 .804-2.24 2.593-2.24 3.219Zm21.354 12.623c-.858 0-1.792.039-2.806.116l4.201-12.123c0-.646-1.15-1.182-1.785-1.354.939-1.279.974-2.616.974-3.147 0-1.316-.77-2.951-3.43-2.951-2.456 0-8.62 2.916-10.332 9.16-1.37 1.892-3.287 4.939-4.636 4.939-2.617 0 2.155-6.739 2.155-6.885 0-.587-.954-1.16-1.727-1.35.98-1.233.944-2.803.944-3.069 0-1.434-1.028-2.795-3.32-2.795-1.328 0-6.193 1.363-9.1 6.582-.836 1.503-1.254 3.303-1.263 5.4-.828-1.673-2.538-2.388-3.41-2.388-2.988 0-.822.902-.829 4.705-.01 4.12-4.063 7.284-7.327 7.284-1.924 0-3.907-1.266-3.907-6.077 0-7.808 5.951-21.736 10.725-21.736 1.243 0 2.184.533 2.184 2 0 2.775-1.887 3.748 1.078 3.748 2.944 0 3.301-1.32 3.301-3.098 0-2.278-1.705-5.408-6.369-5.408-6.113 0-15.976 8.021-15.976 22.763 0 9.694 8.19 10.642 9.819 10.642 7.33 0 10.68-5.84 11.126-9.512.465 1.62 1.421 3.272 3.363 3.272 1.58 0 3.425-2.99 3.741-3.536-.152 1.594.089 4.468 2.493 4.468 2.563 0 4.981-2.082 6.682-4.482.451 2.309 1.669 4.289 3.727 4.289 1.101 0 2.311-1.48 3.273-2.679-.399.831-.922 2.04-1.714 4.272-1.318.342-9.033 2.313-9.585 8.466-.032.16-.077.429-.077.778.155 2.593 2.02 4.505 5.063 4.505 3.872 0 5.802-4.35 8.146-10.137 1.939-.282 3.47-.342 4.337-.342 4.315 0 5.409 1.232 5.637 1.467.288.296.522.438.69.438.087 0 .332-.063.332-.575 0-1.453-2.08-5.65-6.398-5.65Z" fill="#DE0D17"/><path fill-rule="evenodd" clip-rule="evenodd" d="M136.398 53.65c-.937 0-4.015 6.409-6 6.409-1.225 0 2.843-7.121 2.843-10.384 0-2.096-1.6-3.643-2.766-3.643-.804 0-4.167 5.62-6.253 7.337.133-1.148.341-3.37-1.949-3.37-2.472 0-3.822 2.114-3.822 4.187 0 1.35.946 2.537 2.465 2.79-1.234 1.487-2.874 3.278-4.683 3.278-2.484 0 .599-8.462 2.804-11.031l.166-.387c0-.97-2.965-2.297-3.516-2.297-1.799 0-4.877 8.074-4.877 13.515 0 4.67 2.197 5.016 3.122 5.016 4.687 0 7.673-4.94 7.79-4.94.755-1.106 1.301-2.094 1.776-3.517 1.813-1.266 5.727-7.67 5.762-7.67l.026.052c0 .852-4.108 9.836-4.108 12.368 0 1.64.878 3.707 3.037 3.707 4.384-.102 8.935-6.866 8.935-10.369 0-1.045-.579-1.05-.752-1.05ZM26.297 18.59c0 .453.296.655.506.737-1.222 2.711-1.98 5.168-3.623 5.168-.183 0-1.167.073-1.167-1.828 0-2.301 2.155-7.689 5.842-7.689.276 0 .68.014.68.396 0 .8-2.238 2.593-2.238 3.217ZM64.12 31.036c.238 0 .486-.4.486-.591 0-.089-1.328-2.555.25-8.888.427 1.067.633 1.57 1.551 3.748 2.157 5.23 3.802 6.68 5.22 6.68 2.222 0 4.192-3.692 4.192-4.507 0-.308-.14-.427-.371-.427-.449 0-.601.739-1.559.739-1.837 0-3.585-3.345-4.984-6.314 2.157-1.554 7.108-5.281 7.108-6.548 0-2.446-2.358-2.963-3.005-2.963-.236 0-.843.084-.843.399 0 .324.444.391.444.922 0 1.37-4.923 5.404-7.463 7.171 1.752-6.284 3.528-6.295 3.528-6.935 0-1.075-2.816-1.729-3.356-1.729-2.742 0-4.385 4.29-5.114 8.811-1.327 1.656-3.514 5.446-4.968 5.446-1.3 0-.979-2.388-.348-4.454 1.645-3.784 2.656-7.362 2.656-7.705 0-1.096-2.144-2.098-3.934-2.098-1.416 0-3.876 13.756-6.788 13.756-2.799 0 .306-8.77 2.267-10.996l.191-.43c0-1-2.981-2.33-3.659-2.33-2.175 0-4.4 7.193-4.011 11.033-.127.235-1.964 3.69-3.314 3.69-2.446 0 .97-10.777 2.105-11.963l.19-.43c0-1.005-3.008-2.33-3.58-2.33-1.108 0-2.264 2.851-2.923 4.952-.505 1.619-1.077 4.069-1.27 6.489-1.027 1.386-2.116 2.62-2.985 2.62-2.131 0 .972-5.467 1.918-6.407l.239-.478c0-.59-.947-1.155-1.727-1.349.984-1.236.942-2.802.942-3.067 0-1.249-.827-2.798-3.318-2.798-2.734 0-10.365 3.853-10.365 12.04 0 1.163.411 6.138 3.778 6.138 1.58 0 3.43-2.993 3.74-3.534-.149 1.591.092 4.468 2.496 4.468 2.07 0 3.981-1.305 5.515-3.019.703 2.996 2.434 3.056 3.025 3.056 2.239 0 4.47-1.534 6.078-4.584.336 1.449 1.337 4.584 4.792 4.584 1.19 0 2.34-.701 3.414-1.81.757 1.715 2.089 1.773 2.577 1.773 1.336 0 3.238-.387 5.572-3.07a14.79 14.79 0 0 0 1.253-1.717c.042 2.292 2.771 4.956 4.358 4.956Z" fill="#DE0D17"/></svg>
